_addons_iconsets/classic/src/main/resources/icons/switch-on.svg

<?xml version="1.0" encoding="UTF-8"?>
<svg enable-background="new 0 0 64 64" version="1.1" viewBox="0 0 64 64" xml:space="preserve" xmlns="http://www.w3.org/2000/svg">
  <path d="m32 59.5c-14.061 0-25.5-11.439-25.5-25.5 0-10.074 5.862-19.115 15-23.242v8.013c-5.014 3.463-8 9.136-8 15.229 0 10.201 8.299 18.5 18.5 18.5s18.5-8.299 18.5-18.5c0-6.094-2.986-11.767-8-15.229v-8.013c9.138 4.127 15 13.168 15 23.242 0 14.061-11.439 25.5-25.5 25.5z" fill="#00C864"/>
  <path d="m43 11.546c8.553 4.185 14 12.84 14 22.454 0 13.785-11.215 25-25 25s-25-11.215-25-25c0-9.614 5.447-18.269 14-22.454v6.965c-5.019 3.568-8 9.319-8 15.49 0 10.477 8.523 19 19 19s19-8.523 19-19c0-6.171-2.981-11.921-8-15.49v-6.965m-1-1.55v9.039c4.823 3.229 8 8.725 8 14.965 0 9.941-8.059 18-18 18s-18-8.059-18-18c0-6.24 3.177-11.736 8-14.965v-9.039c-9.395 3.918-16 13.189-16 24.004 0 14.359 11.641 26 26 26s26-11.641 26-26c0-10.815-6.605-20.086-16-24.004z" fill="#009949"/>
  <rect x="28.5" y="4.5" width="7" height="23" fill="#00C864"/>
  <path d="m35 5v22h-6v-22h6m1-1h-8v24h8v-24z" fill="#009949"/>
</svg>

<?xml version="1.0" encoding="utf-8"?>
<svg xmlns="http://www.w3.org/2000/svg" version="1.1" x="0px" y="0px" viewBox="0 0 64 64" enable-background="new 0 0 64 64" xml:space="preserve">
  <path fill="#00C864" d="M32,59.5C17.939,59.5,6.5,48.061,6.5,34c0-10.074,5.862-19.115,15-23.242v8.013 c-5.014,3.463-8,9.136-8,15.229c0,10.201,8.299,18.5,18.5,18.5S50.5,44.201,50.5,34c0-6.094-2.986-11.767-8-15.229v-8.013 c9.138,4.127,15,13.168,15,23.242C57.5,48.061,46.061,59.5,32,59.5z"/>
  <path fill="#009949" d="M43,11.546C51.553,15.731,57,24.386,57,34c0,13.785-11.215,25-25,25S7,47.785,7,34 c0-9.614,5.447-18.269,14-22.454v6.965c-5.019,3.568-8,9.319-8,15.49c0,10.477,8.523,19,19,19s19-8.523,19-19 c0-6.171-2.981-11.921-8-15.49V11.546 M42,9.996v9.039c4.823,3.229,8,8.725,8,14.965c0,9.941-8.059,18-18,18s-18-8.059-18-18 c0-6.24,3.177-11.736,8-14.965V9.996C12.605,13.914,6,23.185,6,34c0,14.359,11.641,26,26,26s26-11.641,26-26 C58,23.185,51.395,13.914,42,9.996L42,9.996z"/>
  <rect x="28.5" y="4.5" fill="#00C864" width="7" height="23"/>
  <path fill="#009949" d="M35,5v22h-6V5H35 M36,4h-8v24h8V4L36,4z"/>
</svg>
